X:1
T:Title
%%score 1 { 2 | 3 }
L:1/8
Q:1/4=95
M:3/4
K:Ab
V:1 treble nm="Grand Piano, Soprano"
V:2 bass nm="Choir Pad, Dragicevic, 87.87 D"
V:3 bass 
V:1
 [CA]>[DB] [Ec]3 [CA] | [DB]>[Ec] [DB] [CA]3 | [EA]>[EG] [DF]3 [FB] | [FA]>[DF] [CE]4 | %4
w: By~John~Robson~Sweney,~1882 * * *||||
 [CA]>[CA] [EB]3 E | [EA]>[EB] [Ec] [Ec]3 | [Ae]>[Ae] [A=d]3 [=DB] | [=DA]>[DF] E4 | %8
w: ||||
 EE [Ed]3 [EB] | [DF]>[DG] [DB] [CA]3 | [Ec]>[Ed] [Ee]3 [Af] | [Ae]>[Ac] [GB]4 | %12
w: ||||
 [Ae]>[Ed] [Ec]3 [Ee] | [EA]>E [DF] [FA]3 | [FB][Fd] [Ec]3 [EA] | [Ec]>[DB] [CA]4- | [CA]4 z2 |] %17
w: |||||
V:2
 E,>E, A,3 E, | E,>E, E, E,3 | A,>A, A,3 D | D>A, A,4 | E,>A, G,3 G, | A,>G, A, A,3 | C>C B,3 F, | %7
 F,>A, G,4 | E,E, G,3 G, | A,>B, A, A,3 | A,>B,[K:treble] C3 D | C>E E4 | A,>G, A,3 C | %13
 C>A, A, D3 | DA, A,3 C | A,>G, E,4- | E,4 z2 |] %17
V:3
 A,,>A,, A,,3 A,, | z2 A,, A,,3 | C,>C, D,3 D, | D,>D, A,,4 | A,,>A,, E,3 D, | C,>B,, A,, A,,3 | %6
 A,>A, z2 z B,, | B,,>B,, E,4 | z2 E,3 E, | E,>E, A,, A,,3 | z z/ A,/ A,3 A, | A,>A, E,3 D, | %12
 C,>B,, A,,3 A,, | A,,>C, D, D,3 | D,D, E,3 E, | E,>E, A,,4- | A,,4 z2 |] %17

